projects/samara2/images/icons/muscle.svg

<svg width="49" height="43" viewBox="0 0 49 43" fill="none" xmlns="http://www.w3.org/2000/svg">
<path d="M43.3219 22.9365C38.5955 20.8673 34.78 22.8598 32.5457 24.6821C33.3041 25.6227 33.9413 26.6532 34.4427 27.7498C34.5397 27.9507 34.5534 28.1812 34.481 28.392C34.4086 28.6029 34.2558 28.7772 34.0553 28.8778C33.8548 28.9784 33.6225 28.9972 33.4082 28.9303C33.1939 28.8633 33.0145 28.7159 32.9085 28.5195C32.4701 27.7043 31.7137 26.4148 31.6091 26.2659C30.2895 24.4544 28.4233 23.1052 26.2797 22.4128C24.1361 21.7204 21.826 21.7207 19.6826 22.4136C19.5419 22.7278 19.4631 22.9036 19.3223 23.2178C19.7201 24.2203 19.8082 25.3173 19.5756 26.3695C19.343 27.4217 18.8 28.3817 18.0157 29.1276C17.8784 29.262 17.6996 29.3469 17.5078 29.3688C17.3161 29.3907 17.1224 29.3483 16.9579 29.2484C16.8466 29.1801 16.753 29.0871 16.6843 28.9767C16.6156 28.8664 16.5738 28.7417 16.5622 28.6126C16.5505 28.4834 16.5694 28.3534 16.6173 28.2327C16.6652 28.1121 16.7407 28.0041 16.838 27.9174C17.0797 27.7185 17.2882 27.483 17.4557 27.2196C18.3033 26.12 17.9311 24.5411 17.6791 23.294L17.3612 21.5315L15.8058 12.897C16.2953 12.787 16.7267 12.502 17.0175 12.0966L17.6018 12.7267C17.7473 12.9693 17.9457 13.1765 18.1826 13.3331C18.4194 13.4898 18.6887 13.5918 18.9706 13.6318C19.2525 13.6719 19.5398 13.6488 19.8115 13.5644C20.0832 13.4799 20.3324 13.3362 20.5408 13.1439L21.5376 12.2072L19.7759 10.2231C19.5761 9.9294 19.2778 9.71523 18.9338 9.61856L18.1174 9.22692C17.9168 9.12493 17.7645 8.94901 17.6934 8.73699C17.6223 8.52496 17.6379 8.29374 17.7369 8.093C17.836 7.89227 18.0105 7.73805 18.2231 7.66347C18.4357 7.58889 18.6693 7.59992 18.8737 7.69417C19.4228 7.92497 19.9542 8.19535 20.4634 8.50312C21.2819 9.30441 22.0564 10.1486 22.7836 11.0322L23.4883 10.3595L21.4345 8.154C21.2652 7.88901 21.011 7.68807 20.7126 7.58348C20.498 7.49569 19.9566 7.22549 19.7673 7.13217C19.5622 7.0328 19.4053 6.85675 19.3312 6.64276C19.2571 6.42877 19.2718 6.19437 19.372 5.99111C19.4723 5.78786 19.65 5.63241 19.8659 5.55895C20.0819 5.48549 20.3185 5.50005 20.5236 5.59942L21.2884 5.97409C21.8706 6.17394 22.3774 6.54533 22.7407 7.0385C23.2124 7.53853 24.2447 8.67503 24.7257 9.18426C24.9567 9.0443 25.156 8.85872 25.3114 8.63909C25.4667 8.41945 25.5748 8.17046 25.6288 7.90763C25.6828 7.6448 25.6816 7.37377 25.6253 7.11142C25.569 6.84907 25.4587 6.60103 25.3014 6.38274L21.804 1.84419C21.2419 1.12341 20.4369 0.627014 19.536 0.445664C18.6352 0.264314 17.6985 0.410109 16.8972 0.856423L9.26622 5.13108C8.61116 5.49572 8.03887 5.99009 7.58499 6.58341C7.13112 7.17672 6.80537 7.85628 6.62805 8.57976L1.45482 30.2341C0.547013 33.2161 0.824837 35.65 3.6891 36.1863C4.00231 36.2442 4.29698 36.3755 4.54844 36.5694C12.7957 42.26 18.3811 43.181 25.2328 42.5303C26.867 42.3195 28.4706 41.9193 30.0107 41.338C30.1228 41.2916 30.2434 41.2692 30.3648 41.2721C30.4863 41.2751 30.6057 41.3033 30.7153 41.355C33.1933 42.7741 38.6964 42.1932 40.5978 41.5762C41.9037 41.436 43.1715 41.0548 44.3359 40.4523C45.3994 39.8408 46.3288 39.0249 47.0696 38.0525C47.8105 37.0801 48.3477 35.9708 48.6498 34.7897C51.0387 26.3085 43.3906 22.962 43.3219 22.9365ZM12.145 26.6832C12.1984 26.4664 12.336 26.2792 12.5278 26.1622C12.7196 26.0452 12.9503 26.0079 13.1697 26.0583C13.3891 26.1087 13.5796 26.2429 13.6999 26.4316C13.8202 26.6203 13.8605 26.8484 13.8121 27.0664C13.6651 27.6833 13.7475 28.332 14.0443 28.8936C14.3411 29.4551 14.8322 29.8917 15.4277 30.1234C15.626 30.2317 15.7732 30.4131 15.8375 30.6283C15.9019 30.8434 15.8781 31.075 15.7714 31.2729C15.7189 31.3718 15.6471 31.4594 15.5601 31.5306C15.4732 31.6017 15.3729 31.6551 15.265 31.6876C15.157 31.72 15.0437 31.731 14.9315 31.7197C14.8193 31.7085 14.7105 31.6753 14.6113 31.622C13.6828 31.2138 12.9279 30.4964 12.4774 29.5943C12.0269 28.6922 11.9093 27.6623 12.145 26.6832ZM26.0405 38.9452C25.9965 39.0982 25.9076 39.2348 25.7853 39.3379C25.663 39.4409 25.5126 39.5057 25.3531 39.5242C21.2442 40.0432 17.0699 39.4762 13.2536 37.8808C13.0458 37.794 12.8809 37.6296 12.7945 37.4233C12.7081 37.2169 12.7072 36.9852 12.7919 36.7781C12.8766 36.5711 13.0401 36.4054 13.2472 36.317C13.4542 36.2285 13.688 36.2244 13.8981 36.3054C17.4382 37.7847 21.3091 38.3134 25.121 37.8382C25.2644 37.8203 25.4099 37.8386 25.5441 37.8915C25.6783 37.9444 25.7969 38.0301 25.8887 38.1406C25.9805 38.2511 26.0425 38.3828 26.0691 38.5235C26.0956 38.6642 26.0858 38.8093 26.0405 38.9452ZM45.8827 30.9919C45.7766 31.0292 45.6642 31.0454 45.5518 31.0394C45.4394 31.0335 45.3294 31.0056 45.2279 30.9573C45.1265 30.909 45.0357 30.8413 44.9607 30.7581C44.8858 30.6749 44.8282 30.5778 44.7913 30.4725C44.2241 29.0573 43.1372 27.9073 41.7493 27.2537C40.5632 26.7039 39.2232 26.5717 37.951 26.879C37.7302 26.9285 37.4987 26.8914 37.3049 26.7755C37.1111 26.6596 36.97 26.474 36.9112 26.2574C36.6045 24.2755 41.3156 25.0717 42.4281 25.6869C44.2616 26.5195 45.6909 28.0336 46.4069 29.902C46.4832 30.1154 46.4709 30.3501 46.3726 30.5545C46.2743 30.7589 46.0981 30.9162 45.8827 30.9919Z" fill="white"/>
</svg>

<svg width="49" height="43" fill="none" xmlns="http://www.w3.org/2000/svg"><path d="M43.322 22.936c-4.727-2.069-8.542-.076-10.776 1.746a14.48 14.48 0 011.897 3.068.845.845 0 01-.388 1.128.867.867 0 01-1.147-.358c-.438-.816-1.194-2.105-1.299-2.254a10.634 10.634 0 00-5.33-3.853 10.732 10.732 0 00-6.596 0l-.36.805c.397 1.002.485 2.1.253 3.151a5.422 5.422 0 01-1.56 2.759.866.866 0 01-1.332-.151.829.829 0 01.154-1.06c.242-.199.45-.434.618-.697.847-1.1.475-2.679.223-3.926l-.318-1.762-1.555-8.635c.49-.11.92-.395 1.211-.8l.585.63a1.896 1.896 0 001.369.905 1.922 1.922 0 001.57-.488l.997-.937-1.762-1.984a1.513 1.513 0 00-.842-.604l-.817-.392a.847.847 0 01-.38-1.134.868.868 0 011.137-.399c.549.231 1.08.501 1.59.81a31.967 31.967 0 012.32 2.528l.704-.672-2.053-2.206a1.41 1.41 0 00-.722-.57c-.215-.088-.756-.359-.946-.452a.846.846 0 01-.395-1.141.868.868 0 011.152-.392l.764.375c.583.2 1.09.571 1.453 1.064.471.5 1.504 1.637 1.985 2.146a1.964 1.964 0 00.903-1.276 1.937 1.937 0 00-.328-1.525l-3.497-4.539A3.835 3.835 0 0019.536.446a3.86 3.86 0 00-2.639.41l-7.63 4.275a5.46 5.46 0 00-1.682 1.452 5.402 5.402 0 00-.957 1.997L1.455 30.234c-.908 2.982-.63 5.416 2.234 5.952.313.058.608.19.86.383 8.247 5.691 13.832 6.612 20.684 5.961a21.218 21.218 0 004.778-1.192.871.871 0 01.704.017c2.478 1.42 7.981.838 9.883.221a10.596 10.596 0 003.738-1.124 9.202 9.202 0 002.734-2.4 9.107 9.107 0 001.58-3.262c2.389-8.482-5.26-11.828-5.328-11.854zm-31.177 3.747a.849.849 0 01.383-.52.863.863 0 011.172.269c.12.188.16.416.112.634a2.612 2.612 0 00.232 1.828 2.65 2.65 0 001.384 1.23.846.846 0 01.132 1.407.856.856 0 01-.949.091 4.331 4.331 0 01-2.134-2.028 4.274 4.274 0 01-.332-2.91zm13.896 12.262a.805.805 0 01-.688.58 23.684 23.684 0 01-12.1-1.644.843.843 0 01-.006-1.564.865.865 0 01.651-.012 22.043 22.043 0 0011.223 1.533.862.862 0 01.768.303.845.845 0 01.152.804zm19.842-7.953a.86.86 0 01-1.092-.52 6.05 6.05 0 00-3.042-3.218 5.799 5.799 0 00-3.798-.375.883.883 0 01-.646-.104.87.87 0 01-.394-.518c-.306-1.982 4.405-1.185 5.517-.57a7.636 7.636 0 013.979 4.215.847.847 0 01-.034.652.859.859 0 01-.49.438z" fill="#fff"/></svg>
